src/icons/solid/chat-alt.svg

<svg width="20" height="20" viewBox="0 0 20 20" fill="none" xmlns="http://www.w3.org/2000/svg">
<path fill-rule="evenodd" clip-rule="evenodd" d="M18 5V13C18 14.1046 17.1046 15 16 15H11L6 19V15H4C2.89543 15 2 14.1046 2 13V5C2 3.89543 2.89543 3 4 3H16C17.1046 3 18 3.89543 18 5ZM7 8H5V10H7V8ZM9 8H11V10H9V8ZM15 8H13V10H15V8Z" fill="#4B5563"/>
</svg>

<svg xmlns="http://www.w3.org/2000/svg" viewBox="0 0 20 20" fill="currentColor">
  <path fill-rule="evenodd" d="M18 5v8a2 2 0 01-2 2h-5l-5 4v-4H4a2 2 0 01-2-2V5a2 2 0 012-2h12a2 2 0 012 2zM7 8H5v2h2V8zm2 0h2v2H9V8zm6 0h-2v2h2V8z" clip-rule="evenodd"/>
</svg>
